X: 19807
T: Jerome Lacey
R: reel
M: 4/4
K: Dmajor
|:D2FA B2 dB|BdBA AFD[DB,]|
D2 FA dBBB|A[AF][AE][AF] ABFE|
D2 fe eddB|[B2G2][BG]A BABd|
d/d/ded BA A/A/A|1 AB EE EE [EA,][EB,]:|2 AB EE EE AB||
|:d2ea f2 [fA]f|f2 [fA]f f2 ef|
d2 ed dBBB|DFA(B B)DAB|
d2ea f2 [fA]f|f2 [fA]f afef|
dd ed dBBA|1 A[AF][AF][AE] [A2E2] [eA][eB]:|2 A[AF][AF][AE] [A2E2] [EA,][EB,]||

